X:81
T:Fairhaired Boy (reel), The
B:CRE2.255 (BuachaillÃÂÃÂÃÂÃÂ­n Fionn)
F:file ID: cre.2/081fairh_b
Q:180
L:1/8
M:4/4
R:reel
K:D
A2 AG FGAB|=cAdc BGGG|ABAG F2 ea|fded Addc|
A2 AG FGAB|=cAdc BGGG|ABAG F2 ea|1 fded Addc:|\
[2 fded Adde||
|:f2~f2 e2 de|f2~f2 eAcA|f2 ~f2 e2 de|fded Adde|
f2~f2 ~e2 de|f2 df ec A2|ABcd efge|1 afeg fdde:|\
[2 afeg fddc||

%%%

